packages/kaspersky-hexa-ui-icons/src/iconsSVGs/24/FilterWithIndicator.svg

<svg width="24" height="24" viewBox="0 0 24 24" fill="none" xmlns="http://www.w3.org/2000/svg">
<path d="M11.5079 2L6.21068 2C3.75402 2 2.02165 4.6758 3.57928 6.80939L9.00024 14.3231V19C9.00024 19.8 9.27432 20.5602 9.82366 21.1256C10.3773 21.6955 11.1453 22 12.0003 22C12.8552 22 13.6232 21.6955 14.1768 21.1256C14.7262 20.5602 15.0002 19.8 15.0002 19V14.3231L17.5592 10.7762C16.8778 10.6114 16.2303 10.3594 15.6295 10.0327L13.1893 13.4149C13.0664 13.5852 13.0002 13.79 13.0002 14V19C13.0002 19.3435 12.8868 19.5833 12.7423 19.732C12.6022 19.8762 12.3702 20 12.0003 20C11.6303 20 11.3983 19.8762 11.2582 19.732C11.1137 19.5833 11.0002 19.3435 11.0002 19V14C11.0002 13.79 10.9341 13.5852 10.8112 13.4149L5.19943 5.63674L5.19553 5.63137C4.75614 5.0308 5.12108 4 6.21068 4H11.5079C11.4671 3.67241 11.446 3.33866 11.446 3C11.446 2.66134 11.4671 2.32759 11.5079 2Z" fill="black"/>
</svg>

<svg xmlns="http://www.w3.org/2000/svg" width="24" height="24" fill="none" viewBox="0 0 24 24"><path fill="#000" d="M11.5077 2H6.2104C3.7538 2 2.0214 4.6758 3.579 6.8094L9 14.323V19c0 .8.274 1.5602.8234 2.1256C10.3771 21.6955 11.145 22 12 22s1.623-.3045 2.1766-.8744C14.7259 20.5602 15 19.8 15 19v-4.6769l2.559-3.5469a7.95 7.95 0 0 1-1.9298-.7435l-2.4402 3.3822A1 1 0 0 0 13 14v5c0 .3435-.1135.5833-.2579.732-.1401.1442-.3722.268-.7421.268s-.602-.1238-.7421-.268C11.1135 19.5833 11 19.3435 11 19v-5a1 1 0 0 0-.189-.5851L5.1992 5.6367l-.004-.0053C4.756 5.0308 5.1209 4 6.2105 4h5.2973a8.1 8.1 0 0 1-.0619-1c0-.3387.021-.6724.0619-1"/></svg>
